svgs/sharp-regular/euro-sign.svg

<svg xmlns="http://www.w3.org/2000/svg" viewBox="0 0 320 512"><!--! Font Awesome Pro 6.6.0 by @fontawesome - https://fontawesome.com License - https://fontawesome.com/license (Commercial License) Copyright 2024 Fonticons, Inc. --><path d="M48.6 240c-.4 5.3-.6 10.6-.6 16s.2 10.7 .6 16L0 272l0 48 57.3 0C84.8 412.5 170.5 480 272 480l24 0 24 0 0-48-24 0-24 0c-74.6 0-138.4-46.4-164-112l180 0 0-48L96.7 272c-.5-5.3-.7-10.6-.7-16s.2-10.7 .7-16L288 240l0-48-180 0c25.6-65.6 89.4-112 164-112l24 0 24 0 0-48-24 0-24 0C170.5 32 84.8 99.5 57.3 192L0 192l0 48 48.6 0z"/></svg>

<svg xmlns="http://www.w3.org/2000/svg" viewBox="0 0 320 512"><!--! Font Awesome Pro 6.4.0 by @fontawesome - https://fontawesome.com License - https://fontawesome.com/license (Commercial License) Copyright 2023 Fonticons, Inc. --><path d="M48.6 240c-.4 5.3-.6 10.6-.6 16s.2 10.7 .6 16H0v48H57.3C84.8 412.5 170.5 480 272 480h24 24V432H296 272c-74.6 0-138.4-46.4-164-112H288V272H96.7c-.5-5.3-.7-10.6-.7-16s.2-10.7 .7-16H288V192H108c25.6-65.6 89.4-112 164-112h24 24V32H296 272C170.5 32 84.8 99.5 57.3 192H0v48H48.6z"/></svg>
